X:1
T:false disposition (sketch)
T:False disposition 
%%score 1 2 3
L:1/8
Q:1/4=120
M:4/4
K:C
V:1 treble nm="Скрипка" snm="Скр."
V:2 treble nm="Скрипка" snm="Скр."
V:3 alto nm="Альт" snm="Ал."
V:1
!ff!"^pizz." E^DED E2 EE | G E2 C CDE^D | E2 EE E2 CC | D E2 E CG, A,2 | EDED E2 EE | %5
 G E2 C CD E2 | BED E2 CDC | D _E2 E D2 G,A, | z8 | z8 | z8 | z8 |!ff! AAAA cAAG | GAG A2 Aee | %14
 A2 AG AA A2 | GAG A2 Aee | A2 AG AGAA | ae^d e2 =d e2 | eA A2 eA^GA | z8 | z2 A2 G A2 A | %21
 cAG A2 E2 z | z2 A2 G A2 G | AAG A2 e2 z | z2 A2 G A2 A | cAG A2 E2 z | z2 A2 G A2 G | %27
 AAG A2 e2 z | AG AG<AcAG | AG AG<AGEG | AG AG<AeAG | A2 c2 d2 e2 | AG AG<AcAG | AG AG<AGEG | %34
 AG AG<AeAG | d2 e2 g2 e2 | A4 z4 | z8 | z8 | z8 |!ff! AAAA cAAG | GAG A2 Aee | A2 AG AA A2 | %43
 GAG A2 Aee | A2 AG AGAA | ae^d e2 =d e2 | eA A2 eA^GA | z8 | z2 A2 G A2 A | cAG A2 E2 z | %50
 z2 A2 G A2 G | AAG A2 e2 z | z2 A2 G A2 A | cAG A2 E2 z | z2 A2 G A2 G | AAG A2 e2 z | %56
 AG AG<AcAG | AG AG<AGEG | AG AG<AeAG | A2 c2 d2 e2 | AG AG<AcAG | AG AG<AGEG | AG AG<AeAG | %63
 d2 e2 g2 e2 | A4 z4 | z8 | z8 | z8 | E^DED E2 EE | G E2 C CDE^D | E2 EE E2 CC | D E2 E CG, A,2 | %72
 EDED E2 EE | G E2 C CD E2 | BED E2 CDC | D _E2 E DG,A, z | E^DED E2 EE | G E2 C CDE^D | %78
 E2 EE E2 CC | D E2 E CG, A,2 | EDED E2 EE | G E2 C CD E2 | BED E2 CDC | D _E2 E D2 G,A, |] %84
V:2
!mf!"^pizz." AEA e2 gec | EAc e2 cAc | E^GB e2 cAc | EAc e2 B^GB | EAc e2 cAc | EAc e2 cBe | %6
 gecA cA e2 | AAA c2 ECE |!f! EAc e2 cAc | EAc e2 cAc | EAc e2 cAc | EAc e2 cAc |!mf! EAc e2 cAc | %13
 EAc e2 cAc | EAc e2 cAc | EAc e2 cAc | EAc e2 cAc | E^Gc e2 cAc | E^Gc G2 cGc | %19
!f! z E z A z c z e | z8 | z8 | z8 | z8 | z8 | z8 | z8 | z8 |!mf! EAc e2 cAc | EAc e2 cAc | %30
 EAc e2 cAc | EAc e2 cAc | EAc e2 cAc | B,EG B2 GEG | EAc e2 cAc | GBe g2 eBe |!f! EAc e2 cAc | %37
 EAc e2 cAc | EAc e2 cAc | EAc e2 cAc |!mf! EAc e2 cAc | EAc e2 cAc | EAc e2 cAc | EAc e2 cAc | %44
 EAc e2 cAc | E^Gc e2 cAc | E^Gc G2 cGc |!f! z E z A z c z e | z8 | z8 | z8 | z8 | z8 | z8 | z8 | %55
 z8 |!mf! EAc e2 cAc | EAc e2 cAc | EAc e2 cAc | EAc e2 cAc | EAc e2 cAc | B,EG B2 GEG | %62
 EAc e2 cAc | GBe g2 eBe |!f! EAc e2 cAc | EAc e2 cAc | EAc e2 cAc | EAc e2 cAc | AEA e2 gec | %69
 EAc e2 cAc | E^GB e2 cAc | EAc e2 B^GB | EAc e2 cAc | EAc e2 cBe | gecA cA e2 | AAA c2 ECE | %76
 AEA e2 gec | EAc e2 cAc | E^GB e2 cAc | EAc e2 B^GB | EAc e2 cAc | EAc e2 cBe | gecA cA e2 | %83
 AAA c2 ECE |] %84
V:3
!mp!"^pizz." A,2 C2 E2 A2 | E,2 A,2 A2 E2 | E,2 ^G,2 A2 E2 | E,2 A,2 E2 ^G2 | E,2 A,2 A2 E2 | %5
 E,2 A,2 A2 E2 | G2 E2 C2 E2 | A,2 E,2 ^G,2 A,2 |!ff! A,G, A,G,<A,G,E,G, | A,G, A,G,<A,EA,G, | %10
 A,G, A,G,<A,G,E,G, | A,CDE G/E/D/E/ A,2 |!mp! z2 A,2 A,2 A,2 | z2 E,2 E,2 E,2 | z2 A,2 A,2 A,2 | %15
 z2 E,2 E,2 E,2 | z2 E2 E2 E2 | z2 D2 D2 D2 | z2 ^G,2 G,2 G,2 |!f! A,2 C2 D2 E2 | %20
!mf! A,2 A,2 A,2 A,2 | E,2 E,2 E,2 E,2 | A,2 A,2 A,2 A,2 | E,2 E,2 E,2 E,2 | A,2 A,2 A,2 A,2 | %25
 E,2 E,2 E,2 E,2 | A,2 A,2 A,2 A,2 | E,2 E,2 E,2 E,2 |!mp! A,2 C2 E2 A2 | E,2 G,2 A,2 C2 | %30
 A,2 C2 E2 A2 | E,2 G,2 A,2 C2 | A,2 C2 E2 A2 | E,2 G,2 A,2 C2 | A,2 C2 E2 A2 | E,2 A,2 E2 ^G2 | %36
!ff! A,G, A,G,<A,G,E,G, | A,G, A,G,<A,EA,G, | A,G, A,G,<A,G,E,G, | A,CDE G/E/D/E/ A,2 | %40
!mp! z2 A,2 A,2 A,2 | z2 E,2 E,2 E,2 | z2 A,2 A,2 A,2 | z2 E,2 E,2 E,2 | z2 E2 E2 E2 | %45
 z2 D2 D2 D2 | z2 ^G,2 G,2 G,2 |!f! A,2 C2 D2 E2 |!mf! A,2 A,2 A,2 A,2 | E,2 E,2 E,2 E,2 | %50
 A,2 A,2 A,2 A,2 | E,2 E,2 E,2 E,2 | A,2 A,2 A,2 A,2 | E,2 E,2 E,2 E,2 | A,2 A,2 A,2 A,2 | %55
 E,2 E,2 E,2 E,2 |!mp! A,2 C2 E2 A2 | E,2 G,2 A,2 C2 | A,2 C2 E2 A2 | E,2 G,2 A,2 C2 | %60
 A,2 C2 E2 A2 | E,2 G,2 A,2 C2 | A,2 C2 E2 A2 | E,2 A,2 E2 ^G2 |!ff! A,G, A,G,<A,G,E,G, | %65
 A,G, A,G,<A,EA,G, | A,G, A,G,<A,G,E,G, | A,CDE G/E/D/E/ A,2 | A,2 C2 E2 A2 | E,2 A,2 A2 E2 | %70
 E,2 ^G,2 A2 E2 | E,2 A,2 E2 ^G2 | E,2 A,2 A2 E2 | E,2 A,2 A2 E2 | G2 E2 C2 E2 | A,2 E,2 ^G,2 A,2 | %76
 A,2 C2 E2 A2 | E,2 A,2 A2 E2 | E,2 ^G,2 A2 E2 | E,2 A,2 E2 ^G2 | E,2 A,2 A2 E2 | E,2 A,2 A2 E2 | %82
 G2 E2 C2 E2 | A,2 E,2 ^G,2 A,2 |] %84

